Origami/64x64/apps/steam.svg

<svg width="64" height="64" version="1" xmlns="http://www.w3.org/2000/svg">
 <path d="m4.05 32c-0.0118 0.334-0.0508 0.662-0.0508 1 0 15.512 12.488 28 28 28s28-12.488 28-28c0-0.338-0.04-0.666-0.05-1-0.528 15.042-12.776 27-27.95 27-15.1744 0-27.422-11.958-27.95-27z" style="opacity:.2"/>
 <path d="m59.9992 32c0-15.512-12.488-28-28-28s-28 12.488-28 28 12.488 28 28 28 28-12.488 28-28z" style="fill:#324b6c"/>
 <path d="m 40,15 a 10,10 0 0 0 -10,10 10,10 0 0 0 0,0.002 L 23.388672,34.0625 A 7.4999997,7.4999997 0 0 0 22.5,34 7.4999997,7.4999997 0 0 0 17.492188,35.927734 L 5.5292969,31.076172 C 5.1957439,30.940874 4.6691875,30.757501 4.1074219,30.583984 4.0398895,31.380684 4,32.185244 4,33 c 0,1.376016 0.1010892,2.727009 0.2910156,4.048828 L 15.003906,41.394531 A 7.4999997,7.4999997 0 0 0 15,41.5 7.4999997,7.4999997 0 0 0 22.5,49 7.4999997,7.4999997 0 0 0 30,41.5 7.4999997,7.4999997 0 0 0 29.982422,41.130859 l 8.460937,-6.257812 A 10,10 0 0 0 40,35 10,10 0 0 0 50,25 10,10 0 0 0 40,15 Z m 0,3 a 7.0000001,7.0000001 0 0 1 7,7 7.0000001,7.0000001 0 0 1 -7,7 7.0000001,7.0000001 0 0 1 -7,-7 7.0000001,7.0000001 0 0 1 7,-7 z m 0,2 a 5,5 0 0 0 -5,5 5,5 0 0 0 5,5 5,5 0 0 0 5,-5 5,5 0 0 0 -5,-5 z M 22.5,37 A 4.5000007,4.5000007 0 0 1 27,41.5 4.5000007,4.5000007 0 0 1 22.5,46 4.5000007,4.5000007 0 0 1 18.158203,42.671875 l 2.722656,1.105469 c 1.540123,0.624714 3.283491,-0.112222 3.908203,-1.652344 0.624714,-1.540122 -0.112221,-3.283489 -1.652343,-3.908203 L 20.882812,37.302734 A 4.5000007,4.5000007 0 0 1 22.5,37 Z" style="opacity:.2"/>
 <path d="M 32 4 C 16.488 4 4 16.488 4 32 C 4 32.109572 4.0096832 32.216204 4.015625 32.324219 C 4.373228 17.127933 16.714647 5 32 5 C 47.285353 5 59.626772 17.127933 59.984375 32.324219 C 59.990295 32.216284 60 32.109468 60 32 C 60 16.488 47.512 4 32 4 z" style="fill:#ffffff;opacity:.12"/>
 <path d="m22.5 33a7.4999997 7.4999997 0 0 0 -7.5 7.5 7.4999997 7.4999997 0 0 0 7.5 7.5 7.4999997 7.4999997 0 0 0 7.5 -7.5 7.4999997 7.4999997 0 0 0 -7.5 -7.5zm0 3a4.5000007 4.5000007 0 0 1 4.5 4.5 4.5000007 4.5000007 0 0 1 -4.5 4.5 4.5000007 4.5000007 0 0 1 -4.5 -4.5 4.5000007 4.5000007 0 0 1 4.5 -4.5z" style="fill:#ffffff"/>
 <path d="m22.768093 33.914285 8.501683-11.651882 2.196087 6.932512 7.691154 2.669646-11.832517 8.752472-2.728213-3.954054z" style="fill:#ffffff"/>
 <path d="m40 14a10 10 0 0 0 -10 10 10 10 0 0 0 10 10 10 10 0 0 0 10 -10 10 10 0 0 0 -10 -10zm0 3a7.0000001 7.0000001 0 0 1 7 7 7.0000001 7.0000001 0 0 1 -7 7 7.0000001 7.0000001 0 0 1 -7 -7 7.0000001 7.0000001 0 0 1 7 -7z" style="fill:#ffffff"/>
 <circle cx="40" cy="24" r="5" style="fill:#ffffff"/>
 <path d="m4.1074219 29.583984c-0.0675324 0.7967-0.1074219 1.60126-0.1074219 2.416016 0 1.376016 0.1010892 2.727009 0.2910156 4.048828l16.589843 6.728516c1.540123 0.624714 3.28349-0.112222 3.908203-1.652344 0.624714-1.540122-0.112221-3.283489-1.652343-3.908203l-17.607422-7.140625c-0.333553-0.135298-0.8601094-0.318671-1.421875-0.492188z" style="fill:#ffffff"/>
</svg>

<svg xmlns="http://www.w3.org/2000/svg" width="64" height="64" version="1">
 <path style="opacity:0.2" d="m 4.05,32 c -0.0118,0.334 -0.0508,0.662 -0.0508,1 0,15.512 12.488,28 28,28 15.512,0 28,-12.488 28,-28 0,-0.338 -0.04,-0.666 -0.05,-1 -0.528,15.042 -12.776,27 -27.95,27 C 16.8248,59 4.5772,47.042 4.0492,32 Z"/>
 <path style="fill:#324b6c" d="m 59.9992,32 c 0,-15.512 -12.488,-28 -28,-28 -15.512,0 -28,12.488 -28,28 0,15.512 12.488,28 28,28 15.512,0 28,-12.488 28,-28 z"/>
 <path style="opacity:0.2" d="m 40,15 a 10,10 0 0 0 -10,10 10,10 0 0 0 0,0.002 L 23.388672,34.0625 A 7.4999997,7.4999997 0 0 0 22.5,34 7.4999997,7.4999997 0 0 0 17.492188,35.927734 L 5.5292969,31.076172 C 5.1957439,30.940874 4.6691875,30.757501 4.1074219,30.583984 4.0398895,31.380684 4,32.185244 4,33 c 0,1.376016 0.1010892,2.727009 0.2910156,4.048828 L 15.003906,41.394531 A 7.4999997,7.4999997 0 0 0 15,41.5 7.4999997,7.4999997 0 0 0 22.5,49 7.4999997,7.4999997 0 0 0 30,41.5 7.4999997,7.4999997 0 0 0 29.982422,41.130859 l 8.460937,-6.257812 A 10,10 0 0 0 40,35 10,10 0 0 0 50,25 10,10 0 0 0 40,15 Z m 0,3 a 7.0000001,7.0000001 0 0 1 7,7 7.0000001,7.0000001 0 0 1 -7,7 7.0000001,7.0000001 0 0 1 -7,-7 7.0000001,7.0000001 0 0 1 7,-7 z m 0,2 a 5,5 0 0 0 -5,5 5,5 0 0 0 5,5 5,5 0 0 0 5,-5 5,5 0 0 0 -5,-5 z M 22.5,37 A 4.5000007,4.5000007 0 0 1 27,41.5 4.5000007,4.5000007 0 0 1 22.5,46 4.5000007,4.5000007 0 0 1 18.158203,42.671875 l 2.722656,1.105469 c 1.540123,0.624714 3.283491,-0.112222 3.908203,-1.652344 0.624714,-1.540122 -0.112221,-3.283489 -1.652343,-3.908203 L 20.882812,37.302734 A 4.5000007,4.5000007 0 0 1 22.5,37 Z"/>
 <path style="opacity:0.12;fill:#ffffff" d="M 32 4 C 16.488 4 4 16.488 4 32 C 4 32.109572 4.0096832 32.216204 4.015625 32.324219 C 4.373228 17.127933 16.714647 5 32 5 C 47.285353 5 59.626772 17.127933 59.984375 32.324219 C 59.990295 32.216284 60 32.109468 60 32 C 60 16.488 47.512 4 32 4 z"/>
 <path style="fill:#ffffff" d="M 22.5,33 A 7.4999997,7.4999997 0 0 0 15,40.5 7.4999997,7.4999997 0 0 0 22.5,48 7.4999997,7.4999997 0 0 0 30,40.5 7.4999997,7.4999997 0 0 0 22.5,33 Z m 0,3 A 4.5000007,4.5000007 0 0 1 27,40.5 4.5000007,4.5000007 0 0 1 22.5,45 4.5000007,4.5000007 0 0 1 18,40.5 4.5000007,4.5000007 0 0 1 22.5,36 Z"/>
 <path style="fill:#ffffff" d="m 22.768093,33.914285 8.501683,-11.651882 2.196087,6.932512 7.691154,2.669646 -11.832517,8.752472 -2.728213,-3.954054 z"/>
 <path style="fill:#ffffff" d="M 40,14 A 10,10 0 0 0 30,24 10,10 0 0 0 40,34 10,10 0 0 0 50,24 10,10 0 0 0 40,14 Z m 0,3 a 7.0000001,7.0000001 0 0 1 7,7 7.0000001,7.0000001 0 0 1 -7,7 7.0000001,7.0000001 0 0 1 -7,-7 7.0000001,7.0000001 0 0 1 7,-7 z"/>
 <circle style="fill:#ffffff" cx="40" cy="24" r="5"/>
 <path style="fill:#ffffff" d="M 4.1074219 29.583984 C 4.0398895 30.380684 4 31.185244 4 32 C 4 33.376016 4.1010892 34.727009 4.2910156 36.048828 L 20.880859 42.777344 C 22.420982 43.402058 24.164349 42.665122 24.789062 41.125 C 25.413776 39.584878 24.676841 37.841511 23.136719 37.216797 L 5.5292969 30.076172 C 5.1957439 29.940874 4.6691875 29.757501 4.1074219 29.583984 z"/>
</svg>
